; G-Code generated by Simplify3D(R) Version 4.0.0
; Jan 11, 2018 at 8:31:24 PM
; Settings Summary
;   processName,Process1
;   applyToModels,End cap end cap,End cap end cap(2)
;   profileName,FlashForge Creator Pro(2) (modified)
;   profileVersion,2015-05-01 08:00:00
;   baseProfile,
;   printMaterial,PLA
;   printQuality,Medium
;   printExtruders,Right Extruder Only
;   extruderName,Right Extruder,Left Extruder
;   extruderToolheadNumber,0,1
;   extruderDiameter,0.4,0.4
;   extruderAutoWidth,0,0
;   extruderWidth,0.4,0.4
;   extrusionMultiplier,0.9,0.9
;   extruderUseRetract,1,1
;   extruderRetractionDistance,1,1
;   extruderExtraRestartDistance,0,0
;   extruderRetractionZLift,0,0
;   extruderRetractionSpeed,1200,1200
;   extruderUseCoasting,0,0
;   extruderCoastingDistance,0.2,0.2
;   extruderUseWipe,0,0
;   extruderWipeDistance,5,5
;   primaryExtruder,0
;   layerHeight,0.25
;   topSolidLayers,3
;   bottomSolidLayers,3
;   perimeterOutlines,2
;   printPerimetersInsideOut,1
;   startPointOption,2
;   startPointOriginX,0
;   startPointOriginY,0
;   sequentialIslands,0
;   spiralVaseMode,0
;   firstLayerHeightPercentage,90
;   firstLayerWidthPercentage,100
;   firstLayerUnderspeed,0.5
;   useRaft,0
;   raftExtruder,0
;   raftTopLayers,3
;   raftBaseLayers,2
;   raftOffset,3
;   raftSeparationDistance,0.14
;   raftTopInfill,100
;   aboveRaftSpeedMultiplier,0.3
;   useSkirt,1
;   skirtExtruder,0
;   skirtLayers,1
;   skirtOutlines,2
;   skirtOffset,4
;   usePrimePillar,0
;   primePillarExtruder,999
;   primePillarWidth,12
;   primePillarLocation,7
;   primePillarSpeedMultiplier,1
;   useOozeShield,0
;   oozeShieldExtruder,999
;   oozeShieldOffset,2
;   oozeShieldOutlines,1
;   oozeShieldSidewallShape,1
;   oozeShieldSidewallAngle,30
;   oozeShieldSpeedMultiplier,1
;   infillExtruder,0
;   internalInfillPattern,Rectilinear
;   externalInfillPattern,Rectilinear
;   infillPercentage,20
;   outlineOverlapPercentage,20
;   infillExtrusionWidthPercentage,100
;   minInfillLength,5
;   infillLayerInterval,1
;   internalInfillAngles,45,-45
;   overlapInternalInfillAngles,0
;   externalInfillAngles,45,-45
;   generateSupport,1
;   supportExtruder,0
;   supportInfillPercentage,30
;   supportExtraInflation,0
;   supportBaseLayers,0
;   denseSupportExtruder,0
;   denseSupportLayers,0
;   denseSupportInfillPercentage,70
;   supportLayerInterval,1
;   supportHorizontalPartOffset,0.3
;   supportUpperSeparationLayers,1
;   supportLowerSeparationLayers,1
;   supportType,0
;   supportGridSpacing,4
;   maxOverhangAngle,45
;   supportAngles,0
;   temperatureName,Right Extruder,Left Extruder,Heated Build Platform
;   temperatureNumber,0,1,0
;   temperatureSetpointCount,1,1,1
;   temperatureSetpointLayers,1,1,1
;   temperatureSetpointTemperatures,230,0,60
;   temperatureStabilizeAtStartup,0,0,0
;   temperatureHeatedBed,0,0,1
;   temperatureRelayBetweenLayers,0,0,0
;   temperatureRelayBetweenLoops,0,0,0
;   fanLayers,1,2
;   fanSpeeds,0,100
;   blipFanToFullPower,0
;   adjustSpeedForCooling,1
;   minSpeedLayerTime,15
;   minCoolingSpeedSlowdown,20
;   increaseFanForCooling,0
;   minFanLayerTime,45
;   maxCoolingFanSpeed,100
;   increaseFanForBridging,1
;   bridgingFanSpeed,100
;   use5D,1
;   relativeEdistances,1
;   allowEaxisZeroing,0
;   independentExtruderAxes,1
;   includeM10123,0
;   stickySupport,1
;   applyToolheadOffsets,0
;   gcodeXoffset,0
;   gcodeYoffset,0
;   gcodeZoffset,0
;   overrideMachineDefinition,1
;   machineTypeOverride,0
;   strokeXoverride,225
;   strokeYoverride,145
;   strokeZoverride,150
;   originOffsetXoverride,112.5
;   originOffsetYoverride,72.5
;   originOffsetZoverride,0
;   homeXdirOverride,1
;   homeYdirOverride,1
;   homeZdirOverride,-1
;   flipXoverride,1
;   flipYoverride,-1
;   flipZoverride,1
;   toolheadOffsets,0,0|34,0|0,0|0,0|0,0|0,0
;   overrideFirmwareConfiguration,1
;   firmwareTypeOverride,MakerBot/Sailfish Firmware
;   GPXconfigOverride,r1d
;   baudRateOverride,115200
;   overridePrinterModels,1
;   printerModelsOverride,FlashForge_CreatorPro.stl
;   startingGcode,; **** Replicator 1 dual start.gcode ****,M73 P0 ; enable build progress,G162 X Y F3000 ; home XY maximum,G161 Z F1200 ; home Z minimum,G92 Z-5 ; set Z to -5,G1 Z0 ; move Z to 0,G161 Z F100 ; home Z slowly,M132 X Y Z A B ; recall home offsets,M135 T0 ; load right extruder offsets,G1 X150 Y-70 Z30 F9000 ; move to wait position right hand side of the table,G130 X20 Y20 Z20 A20 B20 ; lower stepper Vrefs while heating,M126 S[fan_speed_pwm],M140 S[bed0_temperature] T0,M134 T0 ; stabilize bed temperature,M104 S[extruder0_temperature] T0,M133 T0 ; stabilize right extruder temperature,G130 X127 Y127 Z40 A127 B127 ; default stepper Vrefs,G92 A0 B0 ; zero extruders,G1 Z0.4 ; position nozzle,G1 X110 Y-70 E25 F300 ; purge nozzle,G1 X120 Y-70 Z0.15 F1200 ; slow wipe,G1 X110 Y-70 Z0.5 F1200 ; lift,G92 A0 B0 ; zero extruders,M73 P1 ;@body (notify GPX body has started),; **** end of start.gcode ****
;   layerChangeGcode,
;   retractionGcode,
;   toolChangeGcode,
;   endingGcode,; **** Replicator 1 dual end.gcode ****,M73 P100 ; end build progress,G1 Z150 F1000 ; send Z axis to bottom of machine,M140 S0 T0 ; cool down HBP,M104 S0 T0 ; cool down right extruder,M104 S0 T1 ; cool down left extruder,M127 ; stop blower fan,G162 X Y F3000 ; home XY maximum,M18 ; disable stepper,M72 P1 ; play Ta-Da song,; **** end of end.gcode ****
;   exportFileFormat,x3g
;   celebration,0
;   celebrationSong,Random Song
;   postProcessing,
;   defaultSpeed,3600
;   outlineUnderspeed,0.5
;   solidInfillUnderspeed,0.8
;   supportUnderspeed,0.8
;   rapidXYspeed,4200
;   rapidZspeed,1200
;   minBridgingArea,50
;   bridgingExtraInflation,0
;   bridgingExtrusionMultiplier,1
;   bridgingSpeedMultiplier,0.8
;   useFixedBridgingAngle,0
;   fixedBridgingAngle,0
;   applyBridgingToPerimeters,0
;   filamentDiameters,1.75|1.75|1.75|1.75|1.75|1.75
;   filamentPricesPerKg,46|46|46|46|46|46
;   filamentDensities,1.25|1.25|1.25|1.25|1.25|1.25
;   useMinPrintHeight,0
;   minPrintHeight,0
;   useMaxPrintHeight,0
;   maxPrintHeight,0
;   useDiaphragm,0
;   diaphragmLayerInterval,20
;   robustSlicing,1
;   mergeAllIntoSolid,0
;   onlyRetractWhenCrossingOutline,1
;   retractBetweenLayers,1
;   useRetractionMinTravel,0
;   retractionMinTravel,3
;   retractWhileWiping,0
;   onlyWipeOutlines,1
;   avoidCrossingOutline,0
;   maxMovementDetourFactor,3
;   toolChangeRetractionDistance,12
;   toolChangeExtraRestartDistance,-0.5
;   toolChangeRetractionSpeed,600
;   externalThinWallType,0
;   internalThinWallType,2
;   thinWallAllowedOverlapPercentage,10
;   singleExtrusionMinLength,1
;   singleExtrusionMinPrintingWidthPercentage,50
;   singleExtrusionMaxPrintingWidthPercentage,200
;   singleExtrusionEndpointExtension,0.2
;   horizontalSizeCompensation,0
G90
M83
; **** Replicator 1 dual start.gcode ****
M73 P0 ; enable build progress
G162 X Y F3000 ; home XY maximum
G161 Z F1200 ; home Z minimum
G92 Z-5 ; set Z to -5
G1 Z0 ; move Z to 0
G161 Z F100 ; home Z slowly
M132 X Y Z A B ; recall home offsets
M135 T0 ; load right extruder offsets
G1 X150 Y-70 Z30 F9000 ; move to wait position right hand side of the table
G130 X20 Y20 Z20 A20 B20 ; lower stepper Vrefs while heating
M127
M140 S60 T0
M134 T0 ; stabilize bed temperature
M104 S230 T0
M133 T0 ; stabilize right extruder temperature
G130 X127 Y127 Z40 A127 B127 ; default stepper Vrefs
G92 A0 B0 ; zero extruders
G1 Z0.4 ; position nozzle
G1 X110 Y-70 E25 F300 ; purge nozzle
G1 X120 Y-70 Z0.15 F1200 ; slow wipe
G1 X110 Y-70 Z0.5 F1200 ; lift
G92 A0 B0 ; zero extruders
M73 P1 ;@body (notify GPX body has started)
; **** end of start.gcode ****
G1 E-1.0000 F1200
G1 Z0.225 F1200
; process Process1
; layer 1, Z = 0.225
M135 T0
; tool H0.250 W0.400
; skirt
G1 X0.763 Y-0.757 F4200
G1 E1.0000 F360
G1 X0.984 Y-0.849 E0.0089 F1800
G1 X53.016 Y-0.849 E1.9469
G1 X53.237 Y-0.757 E0.0089
G1 X55.749 Y1.755 E0.1329
G1 X55.840 Y1.975 E0.0089
G1 X55.840 Y12.008 E0.3754
G1 X55.749 Y12.228 E0.0089
G1 X54.985 Y12.991 E0.0404
G1 X55.749 Y13.755 E0.0404
G1 X55.840 Y13.975 E0.0089
G1 X55.840 Y24.008 E0.3754
G1 X55.749 Y24.228 E0.0089
G1 X53.237 Y26.740 E0.1329
G1 X53.016 Y26.831 E0.0089
G1 X0.984 Y26.831 E1.9469
G1 X0.763 Y26.740 E0.0089
G1 X-1.749 Y24.228 E0.1329
G1 X-1.840 Y24.008 E0.0089
G1 X-1.840 Y20.831 E0.1188
G1 X-45.625 Y20.831 E1.6383
G1 X-45.972 Y20.971 E0.0140
G1 X-45.996 Y20.979 E0.0010
G1 X-46.345 Y21.086 E0.0137
G1 X-46.369 Y21.093 E0.0010
G1 X-47.358 Y21.306 E0.0378
G1 X-47.383 Y21.310 E0.0010
G1 X-47.746 Y21.357 E0.0137
G1 X-47.771 Y21.359 E0.0010
G1 X-48.782 Y21.402 E0.0379
G1 X-48.807 Y21.402 E0.0010
G1 X-49.172 Y21.386 E0.0137
G1 X-49.198 Y21.384 E0.0010
G1 X-50.201 Y21.255 E0.0378
G1 X-50.226 Y21.251 E0.0010
G1 X-50.583 Y21.174 E0.0137
G1 X-50.608 Y21.168 E0.0010
G1 X-51.575 Y20.872 E0.0379
G1 X-51.599 Y20.863 E0.0010
G1 X-51.938 Y20.727 E0.0137
G1 X-51.961 Y20.716 E0.0010
G1 X-52.865 Y20.261 E0.0379
G1 X-52.887 Y20.249 E0.0010
G1 X-53.198 Y20.057 E0.0137
G1 X-53.219 Y20.043 E0.0010
G1 X-54.032 Y19.441 E0.0378
G1 X-54.052 Y19.425 E0.0010
G1 X-54.326 Y19.184 E0.0137
G1 X-54.345 Y19.166 E0.0010
G1 X-55.045 Y18.436 E0.0379
G1 X-55.061 Y18.417 E0.0010
G1 X-55.291 Y18.133 E0.0137
G1 X-55.306 Y18.112 E0.0010
G1 X-55.873 Y17.274 E0.0379
G1 X-55.886 Y17.252 E0.0010
G1 X-56.064 Y16.933 E0.0137
G1 X-56.076 Y16.911 E0.0010
G1 X-56.492 Y15.989 E0.0378
G1 X-56.502 Y15.965 E0.0010
G1 X-56.623 Y15.621 E0.0137
G1 X-56.631 Y15.597 E0.0010
G1 X-56.886 Y14.618 E0.0378
G1 X-56.891 Y14.593 E0.0010
G1 X-56.953 Y14.233 E0.0137
G1 X-56.956 Y14.208 E0.0010
G1 X-57.042 Y13.200 E0.0379
G1 X-57.043 Y13.174 E0.0010
G1 X-57.043 Y12.809 E0.0137
G1 X-57.042 Y12.783 E0.0010
G1 X-56.956 Y11.775 E0.0379
G1 X-56.953 Y11.750 E0.0010
G1 X-56.891 Y11.390 E0.0137
G1 X-56.886 Y11.365 E0.0010
G1 X-56.631 Y10.386 E0.0378
G1 X-56.623 Y10.362 E0.0010
G1 X-56.502 Y10.018 E0.0137
G1 X-56.492 Y9.994 E0.0010
G1 X-56.076 Y9.072 E0.0378
G1 X-56.064 Y9.050 E0.0010
G1 X-55.886 Y8.731 E0.0137
G1 X-55.873 Y8.709 E0.0010
G1 X-55.306 Y7.871 E0.0379
G1 X-55.291 Y7.850 E0.0010
G1 X-55.061 Y7.566 E0.0137
G1 X-55.045 Y7.547 E0.0010
G1 X-54.345 Y6.816 E0.0379
G1 X-54.326 Y6.799 E0.0010
G1 X-54.052 Y6.558 E0.0137
G1 X-54.032 Y6.542 E0.0010
G1 X-53.219 Y5.940 E0.0378
G1 X-53.198 Y5.926 E0.0010
G1 X-52.887 Y5.734 E0.0137
G1 X-52.865 Y5.722 E0.0010
G1 X-51.961 Y5.266 E0.0379
G1 X-51.938 Y5.256 E0.0010
G1 X-51.599 Y5.120 E0.0137
G1 X-51.575 Y5.111 E0.0010
G1 X-50.610 Y4.816 E0.0378
G1 X-50.586 Y4.809 E0.0009
G1 X-50.230 Y4.733 E0.0136
G1 X-50.205 Y4.728 E0.0009
G1 X-49.200 Y4.599 E0.0379
G1 X-49.174 Y4.597 E0.0010
G1 X-48.808 Y4.581 E0.0137
G1 X-48.782 Y4.581 E0.0010
G1 X-47.771 Y4.624 E0.0379
G1 X-47.746 Y4.626 E0.0010
G1 X-47.383 Y4.673 E0.0137
G1 X-47.358 Y4.677 E0.0010
G1 X-46.369 Y4.890 E0.0378
G1 X-46.345 Y4.897 E0.0010
G1 X-45.996 Y5.004 E0.0137
G1 X-45.972 Y5.012 E0.0010
G1 X-45.625 Y5.151 E0.0140
G1 X-1.840 Y5.151 E1.6383
G1 X-1.840 Y1.975 E0.1188
G1 X-1.749 Y1.755 E0.0089
G1 X0.763 Y-0.757 E0.1329
G1 X1.729 Y-1.775 F4200
G1 X-0.783 Y0.737 E0.1329 F1800
G1 X-1.004 Y0.829 E0.0089
G1 X-52.996 Y0.829 E1.9454
G1 X-53.217 Y0.737 E0.0089
G1 X-55.729 Y-1.775 E0.1329
G1 X-55.820 Y-1.995 E0.0089
G1 X-55.820 Y-11.988 E0.3739
G1 X-55.729 Y-12.208 E0.0089
G1 X-54.945 Y-12.991 E0.0414
G1 X-55.729 Y-13.775 E0.0414
G1 X-55.820 Y-13.995 E0.0089
G1 X-55.820 Y-23.988 E0.3739
G1 X-55.729 Y-24.208 E0.0089
G1 X-53.217 Y-26.720 E0.1329
G1 X-52.996 Y-26.811 E0.0089
G1 X-1.004 Y-26.811 E1.9454
G1 X-0.783 Y-26.720 E0.0089
G1 X1.729 Y-24.208 E0.1329
G1 X1.820 Y-23.988 E0.0089
G1 X1.820 Y-20.811 E0.1188
G1 X45.575 Y-20.811 E1.6372
G1 X45.967 Y-20.969 E0.0158
G1 X45.991 Y-20.978 E0.0010
G1 X46.341 Y-21.085 E0.0137
G1 X46.365 Y-21.091 E0.0010
G1 X47.354 Y-21.305 E0.0378
G1 X47.379 Y-21.309 E0.0010
G1 X47.741 Y-21.356 E0.0137
G1 X47.767 Y-21.358 E0.0010
G1 X48.777 Y-21.402 E0.0379
G1 X48.803 Y-21.402 E0.0010
G1 X49.168 Y-21.386 E0.0137
G1 X49.193 Y-21.384 E0.0010
G1 X50.197 Y-21.256 E0.0378
G1 X50.222 Y-21.252 E0.0010
G1 X50.579 Y-21.175 E0.0137
G1 X50.603 Y-21.169 E0.0010
G1 X51.571 Y-20.873 E0.0379
G1 X51.595 Y-20.865 E0.0010
G1 X51.934 Y-20.729 E0.0137
G1 X51.957 Y-20.718 E0.0010
G1 X52.861 Y-20.263 E0.0378
G1 X52.883 Y-20.251 E0.0010
G1 X53.194 Y-20.059 E0.0137
G1 X53.215 Y-20.045 E0.0010
G1 X54.029 Y-19.444 E0.0378
G1 X54.048 Y-19.428 E0.0010
G1 X54.323 Y-19.187 E0.0137
G1 X54.341 Y-19.169 E0.0010
G1 X55.041 Y-18.439 E0.0379
G1 X55.058 Y-18.420 E0.0010
G1 X55.288 Y-18.136 E0.0137
G1 X55.303 Y-18.116 E0.0010
G1 X55.870 Y-17.278 E0.0379
G1 X55.884 Y-17.256 E0.0010
G1 X56.062 Y-16.937 E0.0137
G1 X56.073 Y-16.915 E0.0010
G1 X56.490 Y-15.993 E0.0378
G1 X56.500 Y-15.969 E0.0010
G1 X56.622 Y-15.625 E0.0137
G1 X56.629 Y-15.601 E0.0010
G1 X56.885 Y-14.622 E0.0378
G1 X56.890 Y-14.597 E0.0010
G1 X56.952 Y-14.237 E0.0137
G1 X56.955 Y-14.212 E0.0010
G1 X57.041 Y-13.204 E0.0378
G1 X57.043 Y-13.179 E0.0010
G1 X57.043 Y-12.813 E0.0137
G1 X57.042 Y-12.788 E0.0010
G1 X56.956 Y-11.780 E0.0378
G1 X56.953 Y-11.755 E0.0010
G1 X56.892 Y-11.395 E0.0137
G1 X56.886 Y-11.370 E0.0010
G1 X56.632 Y-10.391 E0.0378
G1 X56.625 Y-10.366 E0.0010
G1 X56.503 Y-10.022 E0.0137
G1 X56.494 Y-9.998 E0.0010
G1 X56.077 Y-9.076 E0.0378
G1 X56.066 Y-9.054 E0.0010
G1 X55.888 Y-8.735 E0.0137
G1 X55.875 Y-8.713 E0.0010
G1 X55.309 Y-7.875 E0.0379
G1 X55.294 Y-7.854 E0.0010
G1 X55.064 Y-7.569 E0.0137
G1 X55.047 Y-7.550 E0.0010
G1 X54.348 Y-6.820 E0.0379
G1 X54.329 Y-6.802 E0.0010
G1 X54.055 Y-6.561 E0.0137
G1 X54.036 Y-6.545 E0.0010
G1 X53.223 Y-5.943 E0.0378
G1 X53.202 Y-5.929 E0.0010
G1 X52.891 Y-5.737 E0.0137
G1 X52.868 Y-5.724 E0.0010
G1 X51.965 Y-5.268 E0.0379
G1 X51.942 Y-5.258 E0.0010
G1 X51.603 Y-5.122 E0.0137
G1 X51.579 Y-5.113 E0.0010
G1 X50.612 Y-4.816 E0.0378
G1 X50.587 Y-4.810 E0.0010
G1 X50.230 Y-4.733 E0.0137
G1 X50.205 Y-4.728 E0.0010
G1 X49.202 Y-4.599 E0.0378
G1 X49.177 Y-4.597 E0.0010
G1 X48.812 Y-4.582 E0.0137
G1 X48.786 Y-4.582 E0.0010
G1 X47.776 Y-4.624 E0.0379
G1 X47.750 Y-4.626 E0.0010
G1 X47.388 Y-4.672 E0.0137
G1 X47.363 Y-4.677 E0.0010
G1 X46.374 Y-4.889 E0.0378
G1 X46.349 Y-4.896 E0.0010
G1 X46.000 Y-5.002 E0.0137
G1 X45.976 Y-5.011 E0.0010
G1 X45.575 Y-5.171 E0.0161
G1 X1.820 Y-5.171 E1.6372
G1 X1.820 Y-1.995 E0.1188
G1 X1.729 Y-1.775 E0.0089
G1 X1.390 Y-2.001 F4200
G1 X-1.010 Y0.398 E0.1270 F1800
G1 X-1.083 Y0.429 E0.0030
G1 X-52.917 Y0.429 E1.9395
G1 X-52.990 Y0.398 E0.0030
G1 X-55.390 Y-2.001 E0.1270
G1 X-55.420 Y-2.075 E0.0030
G1 X-55.420 Y-11.908 E0.3679
G1 X-55.390 Y-11.982 E0.0030
G1 X-54.380 Y-12.991 E0.0534
G1 X-55.390 Y-14.001 E0.0534
G1 X-55.420 Y-14.075 E0.0030
G1 X-55.420 Y-23.908 E0.3679
G1 X-55.390 Y-23.982 E0.0030
G1 X-52.990 Y-26.381 E0.1270
G1 X-52.917 Y-26.411 E0.0030
G1 X-1.083 Y-26.411 E1.9395
G1 X-1.010 Y-26.381 E0.0030
G1 X1.390 Y-23.982 E0.1270
G1 X1.420 Y-23.908 E0.0030
G1 X1.420 Y-20.411 E0.1308
G1 X45.653 Y-20.411 E1.6551
G1 X46.109 Y-20.595 E0.0184
G1 X46.117 Y-20.598 E0.0003
G1 X46.450 Y-20.700 E0.0130
G1 X46.458 Y-20.702 E0.0003
G1 X47.430 Y-20.912 E0.0372
G1 X47.438 Y-20.914 E0.0003
G1 X47.784 Y-20.958 E0.0130
G1 X47.792 Y-20.959 E0.0003
G1 X48.786 Y-21.002 E0.0372
G1 X48.795 Y-21.002 E0.0003
G1 X49.143 Y-20.987 E0.0130
G1 X49.151 Y-20.986 E0.0003
G1 X50.138 Y-20.860 E0.0372
G1 X50.146 Y-20.859 E0.0003
G1 X50.486 Y-20.786 E0.0130
G1 X50.495 Y-20.784 E0.0003
G1 X51.446 Y-20.493 E0.0372
G1 X51.454 Y-20.490 E0.0003
G1 X51.777 Y-20.360 E0.0130
G1 X51.785 Y-20.357 E0.0003
G1 X52.673 Y-19.910 E0.0372
G1 X52.681 Y-19.906 E0.0003
G1 X52.977 Y-19.723 E0.0130
G1 X52.984 Y-19.718 E0.0003
G1 X53.784 Y-19.127 E0.0372
G1 X53.791 Y-19.122 E0.0003
G1 X54.052 Y-18.892 E0.0130
G1 X54.058 Y-18.886 E0.0003
G1 X54.747 Y-18.169 E0.0372
G1 X54.753 Y-18.162 E0.0003
G1 X54.972 Y-17.891 E0.0130
G1 X54.977 Y-17.884 E0.0003
G1 X55.534 Y-17.061 E0.0372
G1 X55.539 Y-17.053 E0.0003
G1 X55.709 Y-16.749 E0.0130
G1 X55.712 Y-16.742 E0.0003
G1 X56.122 Y-15.836 E0.0372
G1 X56.126 Y-15.828 E0.0003
G1 X56.242 Y-15.500 E0.0130
